X:4039
T:Martin Wynne's #2
O:england
N:IrTrad, 6/99, Jeffrey Erickson <jeerickson@DAVIDSON.EDU>
M:2/2
L:1/8
Q:200
C:Martin Wynne
S:Martin Mulvihill, First Collection
R:reel
K:BMin
|:BA|FBAF E2 FE|DB, {D}(3B,A,B, DB,A,2|B,E {F}(3EDE FEDE|FABc dcBA|
FBAF EGFE|DB, {D}(3B,A,B, DB, A,2|B,E {F}(3EDE FEDE|FB{c}BA B2:|
|:BA|FBAF A3 d|(3Bcd eg fdde|f2 af e2 fe|dBAd BAFE|
(3Bcd AF A3 d|(3Bcd eg fdde|f2 af e2 fe|dBAd B2:|


